; generated by PrusaSlicer 2.5.0+win64 on 2023-01-25 at 12:00:50 UTC

; 

; external perimeters extrusion width = 0.45mm
; perimeters extrusion width = 0.45mm
; infill extrusion width = 0.45mm
; solid infill extrusion width = 0.45mm
; top infill extrusion width = 0.40mm
; first layer extrusion width = 0.70mm

M107
M104 S200 ; set temperature
;TYPE:Custom
G28 ; home all axes
G1 Z5 F5000 ; lift nozzle
M109 S200 ; set temperature and wait for it to be reached
G21 ; set units to millimeters
G90 ; use absolute coordinates
M82 ; use absolute distances for extrusion
G92 E0
; Filament gcode
M107
;LAYER_CHANGE
;Z:0.35
;HEIGHT:0.35
G1 Z.35 F7800
G1 E-2 F2400
G92 E0
G1 X49.079 Y83.632 F7800
G1 E2 F2400
;TYPE:Skirt/Brim
;WIDTH:0.7
G1 F1800
G1 X50.956 Y82.756 E2.18835
G1 X54.565 Y81.721 E2.52974
G1 X56.619 Y81.469 E2.71789
G1 X143.992 Y84.469 E10.66736
G1 X147.89 Y85.035 E11.02554
G1 X149.863 Y85.676 E11.21417
G1 X152.651 Y87.097 E11.49871
G1 X154.327 Y88.315 E11.68711
G1 X156.539 Y90.527 E11.97156
G1 X157.757 Y92.203 E12.15995
G1 X159.178 Y94.991 E12.44449
G1 X159.819 Y96.964 E12.63312
G1 X160.308 Y100.054 E12.91759
G1 X160.308 Y102.125 E13.1059
G1 X159.819 Y105.215 E13.39037
G1 X159.178 Y107.188 E13.579
G1 X157.757 Y109.976 E13.86354
G1 X156.539 Y111.652 E14.05193
G1 X154.327 Y113.864 E14.33638
G1 X152.651 Y115.082 E14.52478
G1 X149.863 Y116.503 E14.80932
G1 X147.89 Y117.144 E14.99795
G1 X144.8 Y117.633 E15.28241
G1 X143.829 Y117.714 E15.37102
G1 X59.381 Y118.535 E23.05021
G1 X55.333 Y118.4 E23.41846
G1 X53.299 Y118.005 E23.60692
G1 X49.771 Y116.721 E23.9483
G1 X47.958 Y115.716 E24.13681
G1 X44.999 Y113.404 E24.47826
G1 X43.585 Y111.888 E24.66672
G1 X41.486 Y108.776 E25.00805
G1 X40.61 Y106.898 E25.19649
G1 X39.867 Y104.306 E25.44166
G1 X39.626 Y102.025 E25.6502
G1 X40.075 Y100.043 E25.83501
G1 X44.898 Y87.85 E27.02729
G1 X46.098 Y85.896 E27.23583
G1 X47.355 Y84.794 E27.38779
G1 X49.029 Y83.665 E27.57142
G1 E25.57142 F2400
G92 E0
G1 X134.682 Y101.15 F7800
G1 E2 F2400
;TYPE:Perimeter
;WIDTH:0.7
G1 F1800
G1 X134.682 Y101.334 E2.01672
G1 X135.029 Y103.531 E2.21899
G1 X134.74 Y103.49 E2.24554
G1 X68.588 Y103.49 E8.26072
G1 X68.184 Y103.543 E8.29784
G1 X67.864 Y103.668 E8.32906
G1 X67.446 Y103.986 E8.37675
G1 X67.271 Y104.212 E8.40273
G1 X67.12 Y104.518 E8.43377
G1 X66.933 Y105.032 E8.48356
G1 X64.933 Y107.592 E8.77894
G1 X62.241 Y109.408 E9.07419
G1 X59.119 Y110.303 E9.3695
G1 X55.874 Y110.19 E9.6648
G1 X52.822 Y109.079 E9.9601
G1 X50.262 Y107.079 E10.25547
G1 X49.683 Y106.22 E10.34967
G1 X50.547 Y106.698 E10.43947
G1 X51.39 Y106.854 E10.5174
G1 X62.918 Y105.768 E11.5703
G1 X63.408 Y105.639 E11.61638
G1 X63.818 Y105.373 E11.66082
G1 X64.097 Y105.041 E11.70024
G1 X64.265 Y104.67 E11.73723
G1 X64.332 Y104.288 E11.77253
G1 X64.273 Y103.779 E11.81915
G1 X64.168 Y103.513 E11.84513
G1 X58.981 Y93.161 E12.89797
G1 X58.801 Y92.881 E12.92823
G1 X58.549 Y92.633 E12.9604
G1 X58.341 Y92.495 E12.98306
G1 X54.418 Y90.32 E13.391
G1 X56.589 Y89.697 E13.59641
G1 X59.835 Y89.81 E13.8917
G1 X62.886 Y90.921 E14.187
G1 X65.446 Y92.921 E14.48238
G1 X67.262 Y95.613 E14.77762
G1 X67.819 Y97.558 E14.96158
G1 X67.906 Y97.788 E14.98395
G1 X68.179 Y98.193 E15.02841
G1 X68.488 Y98.448 E15.0648
G1 X68.831 Y98.61 E15.09928
G1 X69.321 Y98.689 E15.14446
G1 X134.74 Y98.689 E21.09301
G1 X135.029 Y98.648 E21.11956
G1 X134.682 Y100.845 E21.32183
G1 X134.682 Y101.09 E21.34408
G1 X135.299 Y101.144 F7800
G1 F1800
G1 X135.299 Y100.943 E21.36241
G1 X135.668 Y98.613 E21.57689
G1 X135.758 Y98.335 E21.60354
G1 X135.909 Y98.067 E21.63147
;WIDTH:0.673129
G1 X136.061 Y97.8 E21.6582
;WIDTH:0.646258
G1 X136.853 Y96.244 E21.80331
;WIDTH:0.645861
G1 X137.02 Y96.014 E21.82695
G1 X138.689 Y94.345 E22.02291
G1 X138.919 Y94.178 E22.04659
;WIDTH:0.6464
G1 X141.022 Y93.107 E22.24273
G1 X141.292 Y93.019 E22.26636
G1 X143.622 Y92.649 E22.46245
;WIDTH:0.645821
G1 X143.907 Y92.649 E22.48616
;WIDTH:0.646402
G1 X146.237 Y93.019 E22.68226
G1 X146.507 Y93.107 E22.70589
G1 X148.61 Y94.178 E22.90202
;WIDTH:0.645857
G1 X148.841 Y94.345 E22.9257
G1 X150.509 Y96.014 E23.12166
G1 X150.677 Y96.244 E23.14534
;WIDTH:0.646398
G1 X151.747 Y98.347 E23.34147
G1 X151.835 Y98.617 E23.3651
G1 X152.205 Y100.947 E23.5612
;WIDTH:0.645821
G1 X152.205 Y101.232 E23.58486
G1 X152.205 Y101.232 E23.5849
;WIDTH:0.6464
G1 X151.835 Y103.562 E23.781
G1 X151.747 Y103.832 E23.80463
G1 X150.677 Y105.935 E24.00076
;WIDTH:0.645859
G1 X150.509 Y106.166 E24.02444
G1 X148.841 Y107.834 E24.2204
G1 X148.61 Y108.001 E24.24408
;WIDTH:0.646398
G1 X146.507 Y109.072 E24.44021
G1 X146.237 Y109.16 E24.46387
G1 X143.907 Y109.529 E24.65996
G1 X143.622 Y109.529 E24.68363
G1 X141.292 Y109.16 E24.87971
G1 X141.022 Y109.072 E24.90337
G1 X138.919 Y108.001 E25.09951
;WIDTH:0.645861
G1 X138.689 Y107.834 E25.12319
G1 X137.02 Y106.166 E25.31915
G1 X136.853 Y105.935 E25.34283
;WIDTH:0.646258
G1 X136.061 Y104.379 E25.4879
;WIDTH:0.673129
G1 X135.909 Y104.112 E25.51463
;WIDTH:0.7
G1 X135.758 Y103.844 E25.54256
G1 X135.668 Y103.566 E25.56921
G1 X135.299 Y101.204 E25.78652
G1 E23.78652 F2400
G92 E0
G1 X63.107 Y105.072 F7800
G1 E2 F2400
G1 F1800
G1 X63.212 Y105.04 E2.0099
G1 X63.51 Y104.79 E2.04537
G1 X63.668 Y104.487 E2.07638
G1 X63.707 Y104.154 E2.10689
G1 X63.61 Y103.793 E2.14092
G1 X58.422 Y93.441 E3.19377
G1 X58.314 Y93.273 E3.21193
G1 X58.038 Y93.041 E3.24467
G1 X52.923 Y90.206 E3.77652
G1 X53.2 Y90.019 E3.80688
G1 X56.512 Y89.069 E4.12021
G1 X59.955 Y89.189 E4.4335
G1 X63.193 Y90.368 E4.7468
G1 X65.909 Y92.49 E5.06017
G1 X67.835 Y95.346 E5.37342
G1 X68.42 Y97.385 E5.56637
G1 X68.545 Y97.652 E5.59316
G1 X68.741 Y97.864 E5.61941
G1 X69.027 Y98.017 E5.64886
G1 X69.321 Y98.064 E5.67597
G1 X134.74 Y98.064 E11.62452
G1 X135.002 Y98.027 E11.64859
G1 X135.267 Y97.902 E11.67523
G1 X135.41 Y97.721 E11.69614
;WIDTH:0.673129
G1 X135.552 Y97.541 E11.71615
;WIDTH:0.646258
G1 X136.344 Y95.985 E11.86123
;WIDTH:0.653249
G1 X136.433 Y95.819 E11.87712
G1 X136.617 Y95.61 E11.90049
;WIDTH:0.645861
G1 X138.285 Y93.942 E12.09645
;WIDTH:0.653247
G1 X138.421 Y93.811 E12.11227
G1 X138.66 Y93.669 E12.13572
;WIDTH:0.6464
G1 X140.762 Y92.598 E12.33185
;WIDTH:0.653822
G1 X140.932 Y92.516 E12.34767
G1 X141.203 Y92.455 E12.37108
;WIDTH:0.646403
G1 X143.533 Y92.086 E12.56718
;WIDTH:0.653213
G1 X143.719 Y92.06 E12.58305
G1 X143.997 Y92.086 E12.60647
;WIDTH:0.646402
G1 X146.327 Y92.455 E12.80257
;WIDTH:0.653821
G1 X146.511 Y92.488 E12.81839
G1 X146.767 Y92.598 E12.84179
;WIDTH:0.646397
G1 X148.869 Y93.669 E13.03793
;WIDTH:0.653244
G1 X149.036 Y93.758 E13.05382
G1 X149.244 Y93.942 E13.07719
;WIDTH:0.64586
G1 X150.913 Y95.61 E13.27315
;WIDTH:0.653244
G1 X151.043 Y95.745 E13.28896
G1 X151.185 Y95.985 E13.31241
;WIDTH:0.646398
G1 X152.256 Y98.087 E13.50855
;WIDTH:0.65382
G1 X152.338 Y98.256 E13.52437
G1 X152.399 Y98.528 E13.54777
;WIDTH:0.6464
G1 X152.768 Y100.857 E13.74387
;WIDTH:0.653214
G1 X152.794 Y101.135 E13.76729
G1 X152.768 Y101.322 E13.78316
;WIDTH:0.6464
G1 X152.399 Y103.651 E13.97926
;WIDTH:0.653821
G1 X152.366 Y103.836 E13.99508
G1 X152.256 Y104.092 E14.01849
;WIDTH:0.646398
G1 X151.185 Y106.194 E14.21462
;WIDTH:0.653244
G1 X151.096 Y106.36 E14.23051
G1 X150.913 Y106.569 E14.25388
;WIDTH:0.645859
G1 X149.244 Y108.237 E14.44984
;WIDTH:0.653245
G1 X149.109 Y108.368 E14.46566
G1 X148.869 Y108.51 E14.48911
;WIDTH:0.646398
G1 X146.767 Y109.581 E14.68524
;WIDTH:0.65382
G1 X146.598 Y109.663 E14.70107
G1 X146.326 Y109.724 E14.72451
;WIDTH:0.6464
G1 X143.996 Y110.093 E14.92059
;WIDTH:0.65371
G1 X143.81 Y110.119 E14.93644
G1 X143.533 Y110.093 E14.95986
;WIDTH:0.6464
G1 X141.203 Y109.724 E15.15594
;WIDTH:0.653821
G1 X141.018 Y109.691 E15.1718
G1 X140.762 Y109.581 E15.19521
;WIDTH:0.6464
G1 X138.66 Y108.51 E15.39134
;WIDTH:0.653247
G1 X138.494 Y108.421 E15.40723
G1 X138.285 Y108.238 E15.43061
;WIDTH:0.645861
G1 X136.617 Y106.569 E15.62657
;WIDTH:0.653249
G1 X136.486 Y106.434 E15.64238
G1 X136.344 Y106.194 E15.66578
;WIDTH:0.646258
G1 X135.552 Y104.638 E15.81091
;WIDTH:0.673129
G1 X135.41 Y104.458 E15.83092
;WIDTH:0.7
G1 X135.267 Y104.277 E15.85183
G1 X135.131 Y104.2 E15.86611
G1 X134.74 Y104.115 E15.90243
G1 X68.462 Y104.123 E21.92908
G1 X68.154 Y104.222 E21.95853
G1 X67.903 Y104.412 E21.98715
G1 X67.708 Y104.731 E22.02118
G1 X67.486 Y105.339 E22.07998
G1 X65.364 Y108.055 E22.39335
G1 X62.508 Y109.981 E22.7066
G1 X59.196 Y110.931 E23.01991
G1 X55.753 Y110.811 E23.33321
G1 X52.515 Y109.632 E23.64651
G1 X49.799 Y107.51 E23.95988
G1 X47.88 Y104.664 E24.27207
G1 X47.821 Y104.474 E24.29018
G1 X50.826 Y106.138 E24.6025
G1 X51.331 Y106.232 E24.64926
G1 X62.86 Y105.146 E25.70216
G1 X63.05 Y105.089 E25.7202
G1 X62.899 Y104.498 F7800
;TYPE:External perimeter
G1 F1800
G1 X63.018 Y104.405 E25.73393
G1 X63.084 Y104.228 E25.75112
G1 X63.051 Y104.073 E25.76554
G1 X57.863 Y93.721 E26.81838
G1 X57.735 Y93.588 E26.83517
G1 X51.728 Y90.258 E27.45976
G1 X52.932 Y89.446 E27.59186
G1 X56.435 Y88.441 E27.92317
G1 X60.076 Y88.568 E28.25447
G1 X63.5 Y89.814 E28.58577
G1 X66.371 Y92.058 E28.91714
G1 X68.408 Y95.078 E29.24838
G1 X69.021 Y97.213 E29.45033
G1 X69.128 Y97.373 E29.4678
G1 X69.321 Y97.44 E29.48639
G1 X134.74 Y97.44 E35.43495
G1 X134.87 Y97.411 E35.44705
G1 X135.019 Y97.269 E35.46573
G1 X135.961 Y95.42 E35.65445
G1 X138.095 Y93.286 E35.92883
G1 X140.784 Y91.916 E36.20328
G1 X143.765 Y91.444 E36.47767
G1 X146.745 Y91.916 E36.75206
G1 X149.434 Y93.286 E37.02652
G1 X151.568 Y95.42 E37.30089
G1 X152.939 Y98.109 E37.57535
G1 X153.388 Y100.95 E37.83692
G1 X153.388 Y101.229 E37.86223
G1 X152.939 Y104.07 E38.12381
G1 X151.568 Y106.759 E38.39827
G1 X149.434 Y108.893 E38.67264
G1 X146.745 Y110.263 E38.9471
G1 X143.765 Y110.735 E39.22148
G1 X140.784 Y110.263 E39.49587
G1 X138.095 Y108.893 E39.77033
G1 X135.961 Y106.759 E40.0447
G1 X135.019 Y104.91 E40.23342
G1 X134.916 Y104.794 E40.24754
G1 X134.74 Y104.74 E40.26426
G1 X68.588 Y104.74 E46.27944
G1 X68.402 Y104.801 E46.29729
G1 X68.295 Y104.945 E46.3136
G1 X68.04 Y105.646 E46.3814
G1 X65.796 Y108.517 E46.71277
G1 X62.776 Y110.554 E47.04401
G1 X59.273 Y111.559 E47.37533
G1 X55.632 Y111.432 E47.70662
G1 X52.208 Y110.186 E48.03792
G1 X49.337 Y107.942 E48.36929
G1 X47.3 Y104.922 E48.70054
G1 X46.805 Y103.196 E48.86382
G1 X51.092 Y105.572 E49.30955
G1 X51.273 Y105.61 E49.32635
G1 X62.841 Y104.513 E50.38296
G1 X63.026 Y104.58 F7800
G1 E48.38296 F2400
G92 E0
G1 X135.916 Y101.126 F7800
G1 E2 F2400
G1 F1800
G1 X135.916 Y101.041 E2.00779
G1 X136.285 Y98.711 E2.22227
G1 X137.385 Y96.515 E2.4456
G1 X137.443 Y96.436 E2.45448
G1 X139.111 Y94.768 E2.66903
G1 X139.191 Y94.71 E2.67793
G1 X141.293 Y93.64 E2.89247
G1 X141.386 Y93.61 E2.90134
G1 X143.716 Y93.24 E3.11585
G1 X143.814 Y93.24 E3.12474
G1 X146.143 Y93.61 E3.33924
G1 X146.236 Y93.64 E3.34811
G1 X148.339 Y94.71 E3.56266
G1 X148.418 Y94.768 E3.57154
G1 X150.086 Y96.436 E3.78609
G1 X150.144 Y96.515 E3.79499
G1 X151.214 Y98.618 E4.00953
G1 X151.244 Y98.711 E4.01839
G1 X151.614 Y101.041 E4.2329
G1 X151.614 Y101.138 E4.24179
G1 X151.244 Y103.468 E4.4563
G1 X151.214 Y103.561 E4.46516
G1 X150.144 Y105.664 E4.67971
G1 X150.086 Y105.743 E4.6886
G1 X148.418 Y107.411 E4.90315
G1 X148.339 Y107.469 E4.91205
G1 X146.236 Y108.539 E5.12659
G1 X146.143 Y108.569 E5.13547
G1 X143.813 Y108.938 E5.34995
G1 X143.716 Y108.938 E5.35883
G1 X141.386 Y108.569 E5.57331
G1 X141.293 Y108.539 E5.58219
G1 X139.19 Y107.469 E5.79675
G1 X139.111 Y107.411 E5.80563
G1 X137.443 Y105.743 E6.02018
G1 X137.385 Y105.664 E6.02908
G1 X136.315 Y103.561 E6.24362
G1 X135.923 Y101.186 E6.46251
G1 X135.838 Y101.091 F7800
G1 X134.63 Y99.971
;TYPE:Solid infill
;WIDTH:0.704393
G1 F1800
G1 X133.817 Y99.158 E6.56776
G1 X132.928 Y99.158 E6.64925
G1 X134.263 Y100.493 E6.82217
G1 X134.193 Y101.09 E6.87714
G1 X134.212 Y101.333 E6.89948
G1 X132.038 Y99.158 E7.1811
G1 X131.148 Y99.158 E7.26259
G1 X134.373 Y102.384 E7.6803
G1 X134.474 Y103.021 E7.73941
G1 X134.121 Y103.021 E7.77176
G1 X130.258 Y99.158 E8.27203
G1 X129.368 Y99.158 E8.35352
G1 X133.231 Y103.021 E8.85379
G1 X132.341 Y103.021 E8.93528
G1 X128.478 Y99.158 E9.43554
G1 X127.588 Y99.158 E9.51703
G1 X131.451 Y103.021 E10.0173
G1 X130.561 Y103.021 E10.09879
G1 X126.698 Y99.158 E10.59906
G1 X125.808 Y99.158 E10.68055
G1 X129.671 Y103.021 E11.18082
G1 X128.781 Y103.021 E11.26231
G1 X124.918 Y99.158 E11.76257
G1 X124.028 Y99.158 E11.84407
G1 X127.891 Y103.021 E12.34433
G1 X127.001 Y103.021 E12.42582
G1 X123.138 Y99.158 E12.92609
G1 X122.248 Y99.158 E13.00758
G1 X126.111 Y103.021 E13.50785
G1 X125.221 Y103.021 E13.58934
G1 X121.358 Y99.158 E14.08961
G1 X120.468 Y99.158 E14.1711
G1 X124.332 Y103.021 E14.67136
G1 X123.442 Y103.021 E14.75285
G1 X119.578 Y99.158 E15.25312
G1 X118.689 Y99.158 E15.33461
G1 X122.552 Y103.021 E15.83488
G1 X121.662 Y103.021 E15.91637
G1 X117.799 Y99.158 E16.41664
G1 X116.909 Y99.158 E16.49813
G1 X120.772 Y103.021 E16.99839
G1 X119.882 Y103.021 E17.07988
G1 X116.019 Y99.158 E17.58015
G1 X115.129 Y99.158 E17.66164
G1 X118.992 Y103.021 E18.16191
G1 X118.102 Y103.021 E18.2434
G1 X114.239 Y99.158 E18.74367
G1 X113.349 Y99.158 E18.82516
G1 X117.212 Y103.021 E19.32542
G1 X116.322 Y103.021 E19.40691
G1 X112.459 Y99.158 E19.90718
G1 X111.569 Y99.158 E19.98867
G1 X115.432 Y103.021 E20.48894
G1 X114.542 Y103.021 E20.57043
G1 X110.679 Y99.158 E21.0707
G1 X109.789 Y99.158 E21.15219
G1 X113.652 Y103.021 E21.65245
G1 X112.762 Y103.021 E21.73395
G1 X108.899 Y99.158 E22.23421
G1 X108.009 Y99.158 E22.3157
G1 X111.872 Y103.021 E22.81597
G1 X110.982 Y103.021 E22.89746
G1 X107.119 Y99.158 E23.39773
G1 X106.229 Y99.158 E23.47922
G1 X110.093 Y103.021 E23.97949
G1 X109.203 Y103.021 E24.06098
G1 X105.339 Y99.158 E24.56124
G1 X104.449 Y99.158 E24.64273
G1 X108.313 Y103.021 E25.143
G1 X107.423 Y103.021 E25.22449
G1 X103.56 Y99.158 E25.72476
G1 X102.67 Y99.158 E25.80625
G1 X106.533 Y103.021 E26.30652
G1 X105.643 Y103.021 E26.38801
G1 X101.78 Y99.158 E26.88827
G1 X100.89 Y99.158 E26.96976
G1 X104.753 Y103.021 E27.47003
G1 X103.863 Y103.021 E27.55152
G1 X100 Y99.158 E28.05179
G1 X99.11 Y99.158 E28.13328
G1 X102.973 Y103.021 E28.63355
G1 X102.083 Y103.021 E28.71504
G1 X98.22 Y99.158 E29.21531
G1 X97.33 Y99.158 E29.2968
G1 X101.193 Y103.021 E29.79706
G1 X100.303 Y103.021 E29.87855
G1 X96.44 Y99.158 E30.37882
G1 X95.55 Y99.158 E30.46031
G1 X99.413 Y103.021 E30.96058
G1 X98.523 Y103.021 E31.04207
G1 X94.66 Y99.158 E31.54234
G1 X93.77 Y99.158 E31.62383
G1 X97.633 Y103.021 E32.12409
G1 X96.743 Y103.021 E32.20559
G1 X92.88 Y99.158 E32.70585
G1 X91.99 Y99.158 E32.78734
G1 X95.853 Y103.021 E33.28761
G1 X94.964 Y103.021 E33.3691
G1 X91.1 Y99.158 E33.86937
G1 X90.21 Y99.158 E33.95086
G1 X94.074 Y103.021 E34.45113
G1 X93.184 Y103.021 E34.53262
G1 X89.321 Y99.158 E35.03288
G1 X88.431 Y99.158 E35.11437
G1 X92.294 Y103.021 E35.61464
G1 X91.404 Y103.021 E35.69613
G1 X87.541 Y99.158 E36.1964
G1 X86.651 Y99.158 E36.27789
G1 X90.514 Y103.021 E36.77816
G1 X89.624 Y103.021 E36.85965
G1 X85.761 Y99.158 E37.35991
G1 X84.871 Y99.158 E37.44141
G1 X88.734 Y103.021 E37.94167
G1 X87.844 Y103.021 E38.02316
G1 X83.981 Y99.158 E38.52343
G1 X83.091 Y99.158 E38.60492
G1 X86.954 Y103.021 E39.10519
G1 X86.064 Y103.021 E39.18668
G1 X82.201 Y99.158 E39.68695
G1 X81.311 Y99.158 E39.76844
G1 X85.174 Y103.021 E40.2687
G1 X84.284 Y103.021 E40.35019
G1 X80.421 Y99.158 E40.85046
G1 X79.531 Y99.158 E40.93195
G1 X83.394 Y103.021 E41.43222
G1 X82.504 Y103.021 E41.51371
G1 X78.641 Y99.158 E42.01398
G1 X77.751 Y99.158 E42.09547
G1 X81.614 Y103.021 E42.59574
G1 X80.725 Y103.021 E42.67723
G1 X76.861 Y99.158 E43.17749
G1 X75.971 Y99.158 E43.25898
G1 X79.835 Y103.021 E43.75925
G1 X78.945 Y103.021 E43.84074
G1 X75.082 Y99.158 E44.34101
G1 X74.192 Y99.158 E44.4225
G1 X78.055 Y103.021 E44.92277
G1 X77.165 Y103.021 E45.00426
G1 X73.302 Y99.158 E45.50452
G1 X72.412 Y99.158 E45.58602
G1 X76.275 Y103.021 E46.08628
G1 X75.385 Y103.021 E46.16777
G1 X71.522 Y99.158 E46.66804
G1 X70.632 Y99.158 E46.74953
G1 X74.495 Y103.021 E47.2498
G1 X73.605 Y103.021 E47.33129
G1 X69.461 Y98.877 E47.86797
G1 E45.86797 F2400
G92 E0
G1 X66.929 Y95.455 F7800
G1 E2 F2400
G1 F1800
